;FLAVOR:Marlin
;TIME:4067
;Filament used: 2.3521m
;Layer height: 0.13125
;MINX:8.071
;MINY:50.24
;MINZ:0.263
;MAXX:111.789
;MAXY:73.218
;MAXZ:8.254
;Generated with Cura_SteamEngine 4.4.1
M140 S65
M105
M190 S65
M104 S225
M105
M109 S225
M82 ;absolute extrusion mode
G21;(metric values)
G90;(absolute positioning)
M82;(set extruder to absolute mode)
M107;(start with the fan off)
G28;(Home the printer)
G92 E0;(Reset the extruder to 0)
G0 Z5 E5 F500;(Move up and prime the nozzle)
G0 X-1 Z0;(Move outside the printable area)
G1 Y60 E8 F500;(Draw a priming/wiping line to the rear)
G1 X-1;(Move a little closer to the print area)
G1 Y10 E16 F500;(draw more priming/wiping)
G1 E15 F250;(Small retract)
G92 E0;(Zero the extruder)
G92 E0
G92 E0
G1 F2400 E-2.5
;LAYER_COUNT:62
;LAYER:0
M107
G0 F4320 X12.343 Y50.327 Z0.263
;TYPE:SKIRT
G1 F2400 E0
G1 F2160 X13.28 Y50.24 E0.03601
G1 X68.241 Y50.241 E2.13937
G1 X106.714 Y50.241 E3.61173
G1 X107.35 Y50.281 E3.63611
G1 X107.975 Y50.4 E3.66046
G1 X108.581 Y50.597 E3.68485
G1 X109.157 Y50.868 E3.70921
G1 X109.695 Y51.209 E3.73359
G1 X110.186 Y51.615 E3.75797
G1 X110.622 Y52.079 E3.78234
G1 X110.997 Y52.594 E3.80672
G1 X111.304 Y53.152 E3.83109
G1 X111.539 Y53.743 E3.85543
G1 X111.698 Y54.36 E3.87981
G1 X111.779 Y54.992 E3.9042
G1 X111.789 Y55.316 E3.9166
G1 X111.789 Y68.142 E4.40745
G1 X111.749 Y68.778 E4.43184
G1 X111.63 Y69.403 E4.45619
G1 X111.433 Y70.009 E4.48058
G1 X111.162 Y70.585 E4.50494
G1 X110.821 Y71.123 E4.52931
G1 X110.415 Y71.614 E4.5537
G1 X109.951 Y72.05 E4.57806
G1 X109.436 Y72.425 E4.60244
G1 X108.879 Y72.732 E4.62678
G1 X108.287 Y72.967 E4.65116
G1 X107.67 Y73.126 E4.67554
G1 X107.038 Y73.207 E4.69993
G1 X106.714 Y73.217 E4.71233
G1 X51.762 Y73.216 E6.81534
G1 X51.241 Y73.217 E6.83528
G1 X51.231 Y73.217 E6.83566
G1 X13.279 Y73.218 E8.28809
G1 X12.644 Y73.178 E8.31243
G1 X12.018 Y73.059 E8.33682
G1 X11.412 Y72.862 E8.36121
G1 X10.836 Y72.591 E8.38557
G1 X10.298 Y72.25 E8.40995
G1 X9.807 Y71.844 E8.43433
G1 X9.371 Y71.38 E8.45869
G1 X8.996 Y70.866 E8.48304
G1 X8.678 Y70.285 E8.50839
G1 X8.55 Y70.01 E8.52
G1 X8.318 Y69.416 E8.5444
G1 X8.162 Y68.799 E8.56876
G1 X8.076 Y67.87 E8.60446
G1 X8.071 Y55.652 E9.07205
G1 X8.111 Y55.016 E9.09643
G1 X8.23 Y54.391 E9.12078
G1 X8.434 Y53.765 E9.14598
G1 X8.568 Y53.43 E9.15979
G1 X8.841 Y52.855 E9.18415
G1 X9.184 Y52.318 E9.20853
G1 X9.592 Y51.829 E9.23291
G1 X10.057 Y51.394 E9.25727
G1 X10.574 Y51.022 E9.28165
G1 X11.133 Y50.717 E9.30602
G1 X11.673 Y50.505 E9.32822
G0 F1944 X11.726 Y50.484
G0 X12.343 Y50.327
G0 F4320 X12.578 Y50.642
G1 F2160 X13.28 Y50.59 E9.35516
G1 X68.241 Y50.591 E11.45851
G1 X106.714 Y50.591 E12.93087
G1 X107.327 Y50.631 E12.95438
G1 X107.93 Y50.75 E12.9779
G1 X108.512 Y50.947 E13.00142
G1 X109.064 Y51.217 E13.02494
G1 X109.576 Y51.557 E13.04846
G1 X110.04 Y51.96 E13.07198
G1 X110.447 Y52.42 E13.09548
G1 X110.792 Y52.929 E13.11901
G1 X111.067 Y53.478 E13.14251
G1 X111.269 Y54.059 E13.16605
G1 X111.393 Y54.66 E13.18954
G1 X111.439 Y55.316 E13.2147
G1 X111.439 Y68.142 E13.70555
G1 X111.399 Y68.755 E13.72906
G1 X111.28 Y69.358 E13.75259
G1 X111.083 Y69.94 E13.7761
G1 X110.813 Y70.492 E13.79962
G1 X110.473 Y71.004 E13.82314
G1 X110.07 Y71.468 E13.84666
G1 X109.61 Y71.875 E13.87016
G1 X109.101 Y72.22 E13.8937
G1 X108.552 Y72.495 E13.91719
G1 X107.971 Y72.697 E13.94074
G1 X107.37 Y72.821 E13.96422
G1 X106.714 Y72.867 E13.98939
G1 X51.761 Y72.866 E16.09243
G1 X51.24 Y72.867 E16.11237
G1 X51.231 Y72.867 E16.11272
G1 X13.279 Y72.868 E17.56514
G1 X12.666 Y72.828 E17.58865
G1 X12.063 Y72.709 E17.61217
G1 X11.481 Y72.512 E17.63568
G1 X10.929 Y72.242 E17.6592
G1 X10.417 Y71.903 E17.6827
G1 X9.953 Y71.499 E17.70625
G1 X9.546 Y71.039 E17.72975
G1 X9.201 Y70.53 E17.75328
G1 X8.995 Y70.137 E17.77026
G1 X8.867 Y69.862 E17.78187
G1 X8.645 Y69.289 E17.80539
G1 X8.498 Y68.692 E17.82892
G1 X8.426 Y67.87 E17.8605
G1 X8.421 Y55.652 E18.32808
G1 X8.461 Y55.039 E18.35159
G1 X8.58 Y54.436 E18.37511
G1 X8.759 Y53.895 E18.39692
G1 X8.893 Y53.56 E18.41073
G1 X9.158 Y53.006 E18.43423
G1 X9.492 Y52.49 E18.45775
G1 X9.891 Y52.023 E18.48126
G1 X10.347 Y51.611 E18.50478
G1 X10.852 Y51.261 E18.52829
G1 X11.399 Y50.981 E18.55181
G1 X11.903 Y50.799 E18.57232
G0 F1944 X11.977 Y50.773
G0 X12.578 Y50.642
G0 F4320 X12.225 Y51.069
G1 F2160 X12.807 Y50.966 E18.59494
G1 X13.28 Y50.94 E18.61307
G1 X68.241 Y50.941 E20.71642
G1 X106.714 Y50.941 E22.18878
G1 X107.304 Y50.981 E22.21141
G1 X107.883 Y51.1 E22.23403
G1 X108.441 Y51.296 E22.25667
G1 X108.967 Y51.566 E22.27929
G1 X109.452 Y51.904 E22.30192
G1 X109.887 Y52.304 E22.32453
G1 X110.264 Y52.76 E22.34717
G1 X110.577 Y53.262 E22.36981
G1 X110.818 Y53.801 E22.39241
G1 X110.985 Y54.369 E22.41507
G1 X111.074 Y54.953 E22.43768
G1 X111.089 Y55.316 E22.45158
G1 X111.089 Y68.142 E22.94243
G1 X111.049 Y68.732 E22.96506
G1 X110.93 Y69.311 E22.98768
G1 X110.734 Y69.869 E23.01032
G1 X110.464 Y70.395 E23.03294
G1 X110.126 Y70.88 E23.05557
G1 X109.726 Y71.315 E23.07818
G1 X109.27 Y71.692 E23.10083
G1 X108.768 Y72.005 E23.12346
G1 X108.229 Y72.246 E23.14606
G1 X107.661 Y72.413 E23.16872
G1 X107.077 Y72.502 E23.19133
G1 X106.714 Y72.517 E23.20523
G1 X51.76 Y72.516 E25.30832
G1 X51.239 Y72.517 E25.32825
G1 X51.231 Y72.517 E25.32856
G1 X13.279 Y72.518 E26.78098
G1 X12.689 Y72.478 E26.80361
G1 X12.11 Y72.359 E26.82623
G1 X11.552 Y72.163 E26.84887
G1 X11.026 Y71.893 E26.87149
G1 X10.541 Y71.555 E26.89412
G1 X10.106 Y71.155 E26.91673
G1 X9.729 Y70.699 E26.93938
G1 X9.313 Y69.989 E26.97087
G1 X9.185 Y69.714 E26.98248
G1 X8.972 Y69.162 E27.00512
G1 X8.836 Y68.587 E27.02773
G1 X8.776 Y67.87 E27.05527
G1 X8.771 Y55.652 E27.52285
G1 X8.811 Y55.062 E27.54548
G1 X8.93 Y54.483 E27.5681
G1 X9.084 Y54.025 E27.5866
G1 X9.218 Y53.69 E27.6004
G1 X9.474 Y53.157 E27.62303
G1 X9.8 Y52.664 E27.64565
G1 X10.189 Y52.219 E27.66827
G1 X10.635 Y51.83 E27.69092
G1 X11.129 Y51.505 E27.71355
G1 X11.569 Y51.294 E27.73222
G0 F1944 X11.662 Y51.25
G0 X12.225 Y51.069
G0 F4320 X12.468 Y51.373
G1 F2160 X13.28 Y51.29 E27.76346
G1 X68.241 Y51.291 E29.86682
G1 X106.714 Y51.291 E31.33917
G1 X107.28 Y51.331 E31.36089
G1 X107.834 Y51.45 E31.38257
G1 X108.366 Y51.646 E31.40427
G1 X108.866 Y51.915 E31.426
G1 X109.323 Y52.251 E31.44771
G1 X109.727 Y52.648 E31.46938
G1 X110.073 Y53.098 E31.49111
G1 X110.351 Y53.592 E31.5128
G1 X110.557 Y54.12 E31.53449
G1 X110.687 Y54.672 E31.55619
G1 X110.739 Y55.316 E31.58092
G1 X110.739 Y68.142 E32.07177
G1 X110.699 Y68.708 E32.09349
G1 X110.58 Y69.262 E32.11517
G1 X110.384 Y69.794 E32.13687
G1 X110.116 Y70.294 E32.15858
G1 X109.779 Y70.75 E32.18028
G1 X109.382 Y71.155 E32.20198
G1 X108.932 Y71.501 E32.22371
G1 X108.438 Y71.779 E32.2454
G1 X107.91 Y71.985 E32.26709
G1 X107.358 Y72.115 E32.28879
G1 X106.714 Y72.167 E32.31352
G1 X51.76 Y72.166 E34.4166
G1 X51.239 Y72.167 E34.43654
G1 X51.231 Y72.167 E34.43685
G1 X13.279 Y72.168 E35.88927
G1 X12.713 Y72.128 E35.91099
G1 X12.159 Y72.009 E35.93267
G1 X11.627 Y71.813 E35.95437
G1 X11.127 Y71.545 E35.97608
G1 X10.671 Y71.208 E35.99778
G1 X10.266 Y70.811 E36.01948
G1 X9.921 Y70.361 E36.04118
G1 X9.63 Y69.841 E36.06399
G1 X9.502 Y69.566 E36.07559
G1 X9.299 Y69.037 E36.09728
G1 X9.173 Y68.484 E36.11898
G1 X9.126 Y67.87 E36.14255
G1 X9.121 Y55.652 E36.61013
G1 X9.161 Y55.086 E36.63185
G1 X9.28 Y54.531 E36.65357
G1 X9.409 Y54.155 E36.66878
G1 X9.543 Y53.82 E36.68259
G1 X9.79 Y53.31 E36.70428
G1 X10.107 Y52.839 E36.72601
G1 X10.486 Y52.418 E36.74768
G1 X10.921 Y52.054 E36.76939
G1 X11.403 Y51.755 E36.7911
G1 X11.806 Y51.577 E36.80796
G0 F1944 X11.922 Y51.526
G0 X12.468 Y51.373
G0 F4320 X12.704 Y51.685
G1 F2160 X13.28 Y51.64 E36.83007
G1 X68.241 Y51.641 E38.93342
G1 X106.714 Y51.641 E40.40578
G1 X107.254 Y51.681 E40.42651
G1 X107.783 Y51.8 E40.44726
G1 X108.288 Y51.995 E40.46797
G1 X108.76 Y52.263 E40.48874
G1 X109.186 Y52.597 E40.50946
G1 X109.559 Y52.99 E40.5302
G1 X109.87 Y53.434 E40.55094
G1 X110.113 Y53.918 E40.57167
G1 X110.281 Y54.433 E40.5924
G1 X110.372 Y54.967 E40.61313
G1 X110.389 Y55.316 E40.6265
G1 X110.389 Y68.142 E41.11735
G1 X110.349 Y68.682 E41.13808
G1 X110.23 Y69.211 E41.15883
G1 X110.035 Y69.716 E41.17954
G1 X109.767 Y70.188 E41.20032
G1 X109.433 Y70.614 E41.22103
G1 X109.04 Y70.987 E41.24177
G1 X108.596 Y71.298 E41.26251
G1 X108.112 Y71.541 E41.28324
G1 X107.597 Y71.709 E41.30397
G1 X107.063 Y71.8 E41.3247
G1 X106.714 Y71.817 E41.33807
G1 X51.759 Y71.816 E43.4412
G1 X51.238 Y71.817 E43.46114
G1 X51.231 Y71.817 E43.4614
G1 X13.279 Y71.818 E44.91383
G1 X12.739 Y71.778 E44.93455
G1 X12.21 Y71.659 E44.9553
G1 X11.705 Y71.464 E44.97602
G1 X11.234 Y71.196 E44.99675
G1 X10.807 Y70.862 E45.0175
G1 X10.434 Y70.469 E45.03824
G1 X10.123 Y70.025 E45.05898
G1 X9.947 Y69.694 E45.07333
G1 X9.819 Y69.419 E45.08494
G1 X9.627 Y68.912 E45.10568
G1 X9.512 Y68.383 E45.1264
G1 X9.476 Y67.87 E45.14608
G1 X9.471 Y55.652 E45.61367
G1 X9.511 Y55.111 E45.63443
G1 X9.629 Y54.582 E45.65517
G1 X9.734 Y54.285 E45.66722
G1 X9.868 Y53.95 E45.68103
G1 X10.106 Y53.463 E45.70178
G1 X10.412 Y53.017 E45.72248
G1 X10.782 Y52.62 E45.74324
G1 X11.205 Y52.282 E45.76397
G1 X11.674 Y52.01 E45.78471
G1 X12.035 Y51.865 E45.7996
G0 F1944 X12.177 Y51.809
G0 X12.704 Y51.685
G0 F4320 X12.427 Y52.101
G1 F2160 X12.934 Y52.008 E45.81933
G1 X13.28 Y51.99 E45.83259
G1 X68.241 Y51.991 E47.93594
G1 X106.714 Y51.991 E49.4083
G1 X107.228 Y52.031 E49.42803
G1 X107.729 Y52.15 E49.44774
G1 X108.206 Y52.345 E49.46746
G1 X108.648 Y52.611 E49.4872
G1 X109.042 Y52.942 E49.5069
G1 X109.381 Y53.331 E49.52664
G1 X109.656 Y53.767 E49.54637
G1 X109.86 Y54.24 E49.56608
G1 X109.989 Y54.739 E49.58581
G1 X110.039 Y55.316 E49.60797
G1 X110.039 Y68.142 E50.09882
G1 X109.999 Y68.656 E50.11855
G1 X109.88 Y69.157 E50.13826
G1 X109.685 Y69.634 E50.15798
G1 X109.419 Y70.076 E50.17772
G1 X109.088 Y70.47 E50.19742
G1 X108.699 Y70.809 E50.21716
G1 X108.263 Y71.084 E50.23689
G1 X107.79 Y71.288 E50.2566
G1 X107.291 Y71.417 E50.27633
G1 X106.714 Y71.467 E50.29849
G1 X51.758 Y71.466 E52.40166
G1 X51.237 Y71.467 E52.42159
G1 X51.231 Y71.467 E52.42182
G1 X13.279 Y71.468 E53.87425
G1 X12.765 Y71.428 E53.89398
G1 X12.264 Y71.309 E53.91368
G1 X11.787 Y71.114 E53.9334
G1 X11.345 Y70.848 E53.95315
G1 X10.951 Y70.517 E53.97284
G1 X10.612 Y70.128 E53.99259
G1 X10.265 Y69.546 E54.01852
G1 X10.137 Y69.271 E54.03013
G1 X9.956 Y68.788 E54.04987
G1 X9.852 Y68.284 E54.06956
G1 X9.826 Y67.869 E54.08547
G1 X9.821 Y55.651 E54.55305
G1 X9.861 Y55.138 E54.57275
G1 X10.059 Y54.415 E54.60143
G1 X10.193 Y54.08 E54.61524
G1 X10.421 Y53.618 E54.63496
G1 X10.717 Y53.196 E54.65469
G1 X11.075 Y52.826 E54.67439
G1 X11.487 Y52.515 E54.69414
G1 X11.783 Y52.356 E54.707
G0 F1944 X11.941 Y52.272
G0 X12.427 Y52.101
G0 F4320 X12.671 Y52.403
G1 F2160 X13.28 Y52.34 E54.73043
G1 X68.241 Y52.341 E56.83379
G1 X106.714 Y52.341 E58.30615
G1 X107.2 Y52.381 E58.32481
G1 X107.673 Y52.5 E58.34348
G1 X108.12 Y52.694 E58.36212
G1 X108.529 Y52.959 E58.38077
G1 X108.889 Y53.287 E58.39941
G1 X109.192 Y53.669 E58.41807
G1 X109.427 Y54.096 E58.43672
G1 X109.59 Y54.555 E58.45537
G1 X109.676 Y55.035 E58.47403
G1 X109.689 Y55.316 E58.48479
G1 X109.689 Y68.142 E58.97564
G1 X109.649 Y68.628 E58.99431
G1 X109.53 Y69.101 E59.01297
G1 X109.336 Y69.548 E59.03162
G1 X109.071 Y69.957 E59.05027
G1 X108.743 Y70.317 E59.06891
G1 X108.361 Y70.62 E59.08757
G1 X107.934 Y70.855 E59.10622
G1 X107.475 Y71.018 E59.12486
G1 X106.995 Y71.104 E59.14352
G1 X106.714 Y71.117 E59.15429
G1 X51.758 Y71.116 E61.25745
G1 X51.237 Y71.117 E61.27739
G1 X51.231 Y71.117 E61.27762
G1 X13.279 Y71.118 E62.73004
G1 X12.793 Y71.078 E62.7487
G1 X12.321 Y70.959 E62.76733
G1 X11.873 Y70.765 E62.78601
G1 X11.464 Y70.5 E62.80467
G1 X11.104 Y70.172 E62.8233
G1 X10.801 Y69.79 E62.84196
G1 X10.582 Y69.398 E62.85915
G1 X10.454 Y69.123 E62.87076
G1 X10.285 Y68.666 E62.8894
G1 X10.193 Y68.187 E62.90807
G1 X10.176 Y67.869 E62.92026
G1 X10.171 Y55.651 E63.38784
G1 X10.211 Y55.165 E63.4065
G1 X10.384 Y54.545 E63.43113
G1 X10.518 Y54.21 E63.44494
G1 X10.735 Y53.774 E63.46358
G1 X11.021 Y53.379 E63.48224
G1 X11.368 Y53.036 E63.50092
G1 X11.765 Y52.754 E63.51955
G1 X12.017 Y52.631 E63.53028
G0 F1944 X12.204 Y52.541
G0 X12.671 Y52.403
G0 F4320 X12.907 Y52.717
G1 F2160 X13.28 Y52.69 E63.5446
G1 X68.241 Y52.691 E65.64795
G1 X106.714 Y52.691 E67.12031
G1 X107.17 Y52.731 E67.13783
G1 X107.612 Y52.849 E67.15533
G1 X108.027 Y53.043 E67.17287
G1 X108.402 Y53.306 E67.1904
G1 X108.726 Y53.63 E67.20793
G1 X108.988 Y54.005 E67.22544
G1 X109.181 Y54.42 E67.24295
G1 X109.299 Y54.862 E67.26046
G1 X109.339 Y55.316 E67.2779
G1 X109.339 Y68.142 E67.76875
G1 X109.299 Y68.598 E67.78627
G1 X109.181 Y69.04 E67.80378
G1 X108.987 Y69.455 E67.82131
G1 X108.724 Y69.83 E67.83884
G1 X108.4 Y70.154 E67.85638
G1 X108.025 Y70.416 E67.87388
G1 X107.61 Y70.609 E67.8914
G1 X107.168 Y70.727 E67.90891
G1 X106.714 Y70.767 E67.92635
G1 X51.757 Y70.766 E70.02955
G1 X51.236 Y70.767 E70.04949
G1 X51.231 Y70.767 E70.04968
G1 X13.279 Y70.768 E71.5021
G1 X12.823 Y70.728 E71.51962
G1 X12.381 Y70.61 E71.53713
G1 X11.966 Y70.416 E71.55466
G1 X11.591 Y70.153 E71.57219
G1 X11.267 Y69.829 E71.58972
G1 X11.005 Y69.454 E71.60723
G1 X10.899 Y69.251 E71.61599
G1 X10.771 Y68.976 E71.6276
G1 X10.615 Y68.545 E71.64514
G1 X10.526 Y67.869 E71.67124
G1 X10.521 Y55.651 E72.13882
G1 X10.561 Y55.195 E72.15634
G1 X10.709 Y54.675 E72.17703
G1 X10.843 Y54.34 E72.19084
G1 X11.049 Y53.931 E72.20836
G1 X11.324 Y53.565 E72.22588
G1 X11.657 Y53.252 E72.24337
G1 X12.041 Y53.001 E72.26093
G1 X12.243 Y52.914 E72.26934
G0 F1944 X12.461 Y52.821
G0 X12.907 Y52.717
G0 F4320 X12.712 Y53.112
G1 F2160 X13.28 Y53.04 E72.29126
G1 X68.241 Y53.041 E74.39461
G1 X106.714 Y53.041 E75.86697
G1 X107.138 Y53.081 E75.88327
G1 X107.548 Y53.199 E75.8996
G1 X107.928 Y53.392 E75.91591
G1 X108.265 Y53.652 E75.9322
G1 X108.548 Y53.971 E75.94852
G1 X108.767 Y54.336 E75.9648
G1 X108.914 Y54.736 E75.98111
G1 X108.989 Y55.316 E76.0035
G1 X108.989 Y68.142 E76.49435
G1 X108.949 Y68.566 E76.51064
G1 X108.831 Y68.976 E76.52697
G1 X108.638 Y69.356 E76.54328
G1 X108.378 Y69.693 E76.55957
G1 X108.06 Y69.976 E76.57586
G1 X107.694 Y70.195 E76.59219
G1 X107.294 Y70.342 E76.60849
G1 X106.714 Y70.417 E76.63088
G1 X51.756 Y70.416 E78.73412
G1 X51.235 Y70.417 E78.75405
G1 X51.231 Y70.417 E78.75421
G1 X13.279 Y70.418 E80.20663
G1 X12.855 Y70.378 E80.22293
G1 X12.445 Y70.26 E80.23925
G1 X12.065 Y70.067 E80.25556
G1 X11.728 Y69.807 E80.27185
G1 X11.445 Y69.489 E80.28815
G1 X11.216 Y69.103 E80.30532
G1 X11.088 Y68.828 E80.31693
G1 X10.946 Y68.427 E80.33321
G1 X10.876 Y67.869 E80.35473
G1 X10.871 Y55.651 E80.82231
G1 X10.911 Y55.227 E80.83861
G1 X11.034 Y54.805 E80.85543
G1 X11.168 Y54.47 E80.86924
G1 X11.362 Y54.091 E80.88554
G1 X11.624 Y53.755 E80.90184
G1 X11.944 Y53.473 E80.91817
G1 X12.08 Y53.393 E80.9242
G0 F1944 X12.311 Y53.257
G0 X12.712 Y53.112
G0 F4320 X12.953 Y53.418
G1 F2160 X13.28 Y53.39 E80.93676
G1 X68.241 Y53.391 E83.04012
G1 X106.714 Y53.391 E84.51248
G1 X107.104 Y53.431 E84.52748
G1 X107.478 Y53.549 E84.54249
G1 X107.82 Y53.74 E84.55748
G1 X108.116 Y53.997 E84.57248
G1 X108.354 Y54.308 E84.58747
G1 X108.524 Y54.661 E84.60246
G1 X108.619 Y55.041 E84.61745
G1 X108.639 Y55.316 E84.62801
G1 X108.639 Y68.142 E85.11886
G1 X108.599 Y68.532 E85.13386
G1 X108.481 Y68.906 E85.14887
G1 X108.29 Y69.248 E85.16386
G1 X108.033 Y69.544 E85.17886
G1 X107.722 Y69.782 E85.19385
G1 X107.369 Y69.952 E85.20884
G1 X106.989 Y70.047 E85.22383
G1 X106.714 Y70.067 E85.23439
G1 X51.756 Y70.066 E87.33763
G1 X51.235 Y70.067 E87.35756
